logos/nuxt-icon.svg

<?xml version="1.0" encoding="UTF-8"?>
<svg width="256px" height="168px" viewBox="0 0 256 168" version="1.1" xmlns="http://www.w3.org/2000/svg" preserveAspectRatio="xMidYMid">
    <title>Nuxt</title>
    <g>
        <path d="M143.618122,167.029035 L238.783939,167.029035 C241.806854,167.029035 244.776203,166.258021 247.393863,164.791742 C250.011522,163.325464 252.184969,161.216944 253.695615,158.677198 C255.206261,156.137993 256,153.257377 256,150.325361 C256,147.393344 255.201391,144.513811 253.68804,141.975147 L189.777766,34.5996651 C188.26712,32.0608387 186.093673,29.9524814 183.476555,28.4865815 C180.859437,27.0207356 177.890629,26.2489644 174.868796,26.2489644 C171.846422,26.2489644 168.877613,27.0207356 166.260495,28.4865815 C163.643377,29.9524814 161.470471,32.0608387 159.959825,34.5996651 L143.618122,62.0732374 L111.667314,8.34948876 C110.155586,5.81082466 107.981598,3.70279201 105.363938,2.23716798 C102.745738,0.771560187 99.7763886,7.10542736e-15 96.7540148,7.10542736e-15 C93.7316411,7.10542736e-15 90.7622914,0.771560187 88.1440911,2.23716798 C85.526432,3.70279201 83.3524438,5.81082466 81.8407159,8.34948876 L2.31153321,141.975147 C0.798555412,144.513811 -1.42108547e-14,147.393344 -1.42108547e-14,150.325361 C-1.42108547e-14,153.257377 0.793339571,156.137993 2.30403949,158.677198 C3.81473942,161.216944 5.98822437,163.325464 8.60582946,164.791742 C11.2234886,166.258021 14.1930006,167.029035 17.215699,167.029035 L76.9527595,167.029035 C100.621528,167.029035 118.076196,156.944716 130.086696,137.270611 L159.245623,88.2877037 L174.863926,62.0732374 L221.737773,140.81511 L159.245623,140.81511 L143.618122,167.029035 Z M75.9788474,140.788056 L34.2901088,140.778858 L96.781609,35.7961702 L127.963027,88.2877037 L107.085599,123.371804 C99.1097999,136.137085 90.0486303,140.788056 75.9788474,140.788056 Z" fill="#00DC82"></path>
    </g>
</svg>

<svg preserveAspectRatio="xMidYMid" viewBox="0 0 256 168" xmlns="http://www.w3.org/2000/svg">
  <path fill="#00DC82" d="M143.618 167.029h95.166c3.023 0 5.992-.771 8.61-2.237a16.963 16.963 0 0 0 6.302-6.115 16.324 16.324 0 0 0 2.304-8.352c0-2.932-.799-5.811-2.312-8.35L189.778 34.6a16.966 16.966 0 0 0-6.301-6.113 17.626 17.626 0 0 0-8.608-2.238c-3.023 0-5.991.772-8.609 2.238a16.964 16.964 0 0 0-6.3 6.113l-16.342 27.473-31.95-53.724a16.973 16.973 0 0 0-6.304-6.112A17.638 17.638 0 0 0 96.754 0c-3.022 0-5.992.772-8.61 2.237a16.973 16.973 0 0 0-6.303 6.112L2.31 141.975a16.302 16.302 0 0 0-2.31 8.35c0 2.932.793 5.813 2.304 8.352a16.964 16.964 0 0 0 6.302 6.115 17.628 17.628 0 0 0 8.61 2.237h59.737c23.669 0 41.123-10.084 53.134-29.758l29.159-48.983 15.618-26.215 46.874 78.742h-62.492l-15.628 26.214Zm-67.64-26.24-41.688-.01L96.782 35.796l31.181 52.492-20.877 35.084c-7.976 12.765-17.037 17.416-31.107 17.416Z"/>
</svg>
